X:217
T:Tempo Waltz,The. CJF.217
R:Waltz
S:C.J.Fox MS, 1829/33, Beverley,E.Yorks.
N:At the “1” mark, the beamed pair appear on the MS to have
N:been semiquavers, but with an attempt to scratch out one
N:of the beam bars. They are therefore shown as quavers. – PJH.
B:Kidson Coll.Mitchell Lib.M1805
O:England
A:East Yorkshire
Z:vmp.P J Headford 2000 & 2008
M:3/8
L:1/16
Q:3/8=45
K:G
“p”(fg)|G2 (dB) c2-|cA (dc) (F2|G2) (fg) bg|”1”.f2.a2 (fg)|!
“p”G2 (dB) c2-|c.A (dc)(AB)|G2 (dB)(cA)|G4:|!
|:” f”d2|(dc) a2 (.Ac)|(Bd) G4-|G3cAF|G2g2 d2|!
dc a2.c2|cB g2 A2|A3ecA|G4:|!
|:B2|(BG) (fg) G2|(AF) .D2.c2|.B2GB(dB)|(Ac)(ec)(Ac)|!
(BG) (fg) G2|(cA) (^ga) A2|(dB)(ec)(fd)|g4:|

